!!!COM: Hindemith, Paul
!!!OTL: Sonata for Violincello and Piano
!!!OMV: II: Mäßig schnell - Langsam - Tempo I (Moderately Fast - Slow - Tempo I)
!!!example: 672
!!!work: Hin-89
**kern	**kern	**dynam	**kern	**dynam
*clefG2	*clefG2	*	*clefC4	*
*k[]	*k[]	*	*k[]	*
*C:	*C:	*	*C:	*
*M4/2	*M4/2	*	*M4/2	*
*MM121	*MM121	*	*MM121	*
=29	=	=	=	=
2r	4r	.	4c#X	.
.	(4ccc#X	p	4r	.
(4cc#X	4eee	.	4r	.
*	*	*	*clefF4	*
4ee	4aa	.	4C#X	mf
2a'~) 2dd	2ee'~) 2bb	.	4E	.
.	.	.	(12DL	.
.	.	.	12Cn	.
.	.	.	12BB-XJ	.
2g'~ 2ccn 2dd	2ff#X'~ 2bb	.	4AA)	.
.	.	.	4GG	.
=30	=30	=30	=30	=30
*^	*^	*	*	*
*	*^	*	*	*	*	*
(2dd	[1b	0f#X	2.bb	1gg	.	4EE	.
.	.	.	.	.	.	4r	.
4ee	.	.	.	.	.	4BB	<
4dd	.	.	4ccc#X	.	.	4EE	.
1cc#X)	2b]	.	(4ddd	1aa	<	4r	[
.	.	.	8fffnL	.	[	4BB	>
.	.	.	8eeeJ)	.	.	.	.
.	2g#X	.	4eee	.	>	4EE	.
.	.	.	4cccn	.	.	4r	]
*	*	*	*v	*v	*	*	*
=31	=31	=31	=31	=31	=31	=31
2e'~ 2a 2dd	1ryy	1ryy	2ee'~ 2bb	]	12DL	.
.	.	.	.	.	12C#X	.
.	.	.	.	.	12CnJ	.
.	.	.	.	.	4BB	.
2d'~ 2gn 2ccn	.	.	2ff#X'~ 2bb	.	4r	.
.	.	.	.	.	4GG	.
(2b	[1f#X	[1c	2.gg#X 2.bb	.	4CC	.
.	.	.	.	.	4r	.
4a	.	.	.	.	4GG#X	.
4g#X	.	.	4aa#X 4ccc#X	.	4CC#X	.
=32	=32	=32	=32	=32	=32	=32
*	*	*	*^	*	*	*
!!linebreak:original
2a)	2f#]	2c\]	(8dddL	2.bb	<	4r	.
.	.	.	8gggn)	.	.	.	.
.	.	.	8fffn	.	.	(12DDL	<
.	.	.	.	.	.	12EE	.
.	.	.	8eeeJ	.	.	.	.
.	.	.	.	.	.	12FFJ	.
4r	4ryy	2ryy	4eee	.	.	4D)	.
[4gg	(4cc#X	.	4cccn	4ryy	.	4F	.
1gg]	2ccn	1ryy	4bb	4ryy	.	4d	.
*	*	*	*v	*v	*	*	*
*	*	*	*8va	*	*	*
*	*	*	*^	*	*	*
.	.	.	(4bb 4bbb	4ryy	.	4f	.
.	2b	.	4aa#X 4aaa#X	4ryy	.	4r	.
.	.	.	4bb 4bbb	4ryy	.	(12e-XL	.
.	.	.	.	.	.	12d	.
.	.	.	.	.	.	12AJ	.
*	*v	*v	*	*	*	*	*
=33	=33	=33	=33	=33	=33	=33
0ryy	1b-X) 1dd 1aa-X	2.cccc	1ccc#X 1eeen	[	4F#X)	.
.	.	.	.	.	4Fn	[
.	.	.	.	.	12EL	.
.	.	.	.	.	12E-X	.
.	.	.	.	.	12DJ	.
.	.	4aa-X)	.	.	4AA	.
*v	*v	*	*	*	*	*
*	*v	*v	*	*	*
*	*X8va	*	*	*
*^	*^	*	*	*
.	4r	4fff	1ryy	.	4AA-X	.
.	4a 4cc#X 4dd	8r	.	.	(12GGL	.
.	.	.	.	.	12GG-X	.
.	.	(8fff	.	.	.	.
.	.	.	.	.	12FFJ	.
.	4r	4ddd)	.	.	4CC)	.
.	4a-X 4ccn 4dd	8r	.	.	4r	.
.	.	(8ddd	.	.	.	.
*	*	*v	*v	*	*	*
=34	=34	=34	=34	=34	=34
!!linebreak:original
1r	4r	4ggg)	.	4C	.
!	!	!	!	!LO:TX:t=dim.	!
.	4g 4bn 4ee-X	8r	.	4C#X	.
!	!	!LO:TX:t=dim.	!	!	!
.	.	(8ggg	.	.	.
.	2r	8eeenL)	.	4D	.
.	.	8ccc	.	.	.
.	.	8aa	.	4E-X	.
.	.	8ffJ	.	.	.
4ryy	4r	4ee	.	4A-X	.
4ryy	4f#X 4a#X	8r	.	4r	.
.	.	(8ee	.	.	.
2ryy	4r	4cc#X)	.	4G	.
.	4fn 4an	8r	.	4r	.
.	.	(8cc#	.	.	.
*v	*v	*	*	*	*
=35	=35	=35	=35	=35
*M5/2	*M5/2	*	*M5/2	*
2r	8ff#XL)	.	4F	.
.	8dd#X	.	.	.
.	8b	.	4r	.
.	8g#XJ	.	.	.
2r	4e#X	.	(12D#XL	.
.	.	.	12E#X	.
.	.	.	12F#XJ	.
.	4f#X	.	4B)	.
2r	(2gn	.	4r	.
.	.	.	4A	.
(2en	2gg	.	4Gn	.
.	.	.	4BB	.
2dn)	4.gg)	.	4AA	.
.	.	.	4FF#X	.
.	(16ff#XLL	.	.	.
.	16ggJJ)	.	.	.
==	==	==	==	==
*-	*-	*-	*-	*-
!!!CDT: 1895/11/16-1963/12/28
!!!CBL: Hanau, Germany
!!!CDL: Frankfurt, Germany
!!!CNT: German
!!!AGN: Instrumental; Chamber
!!!MCN:
!!!MDT: 1948/11/01
!!!MGN:
!!!MLC: London, United Kingdom
!!!MPD: 1948
!!!MPN: Nelsova, Zara; Parry, Wilfrid
!!!ODT: 1948
!!!PDT: 1948
!!!excerpt-start-measure: 29
!!!excerpt-end-measure: 35
!!!excerpt-start-time: 1:16
!!!excerpt-end-time: 1:34
!!!system-decoration: s1{(s2,s3)}
!!!ONB: Converted from MusicXML on 2020/01/19 and edited by Craig Stuart Sapp
!!!EEV: 2020/01/19
